Source Code/mun/assets/flags/SWE.svg

<svg viewBox="0 0 40.5 40.5" xmlns="http://www.w3.org/2000/svg"><path d="m40.5 20.25a20.82 20.82 0 0 1 -.39 4 20.27 20.27 0 0 1 -19.86 16.25h-1.46a20.1 20.1 0 0 1 -7.95-2.27 20.32 20.32 0 0 1 -10.45-14 20.5 20.5 0 0 1 0-8 20.32 20.32 0 0 1 10.45-13.91 20.1 20.1 0 0 1 8-2.27v-.05h1.46a20.27 20.27 0 0 1 19.81 16.27 20.82 20.82 0 0 1 .39 3.98z" fill="#006aa7"/><path d="m40.5 20.25a20.82 20.82 0 0 1 -.39 4h-21.32v16.2a20.1 20.1 0 0 1 -7.95-2.27v-13.95h-10.45a20.5 20.5 0 0 1 0-8h10.45v-13.91a20.1 20.1 0 0 1 8-2.27v16.22h21.27a20.82 20.82 0 0 1 .39 3.98z" fill="#fecc00"/></svg>

<svg xmlns="http://www.w3.org/2000/svg" viewBox="0 0 40.5 40.5"><defs><style>.cls-1{fill:#006aa7;}.cls-2{fill:#fecc00;}</style></defs><g id="Ebene_2" data-name="Ebene 2"><g id="Ńëîé_1" data-name="Ńëîé 1"><path class="cls-1" d="M40.5,20.25a20.82,20.82,0,0,1-.39,4A20.27,20.27,0,0,1,20.25,40.5H18.79v0a20.1,20.1,0,0,1-7.95-2.27A20.32,20.32,0,0,1,.39,24.23a20.5,20.5,0,0,1,0-8A20.32,20.32,0,0,1,10.84,2.32a20.1,20.1,0,0,1,8-2.27V0h1.46A20.27,20.27,0,0,1,40.11,16.27,20.82,20.82,0,0,1,40.5,20.25Z"/><path class="cls-2" d="M40.5,20.25a20.82,20.82,0,0,1-.39,4H18.79V40.45a20.1,20.1,0,0,1-7.95-2.27V24.23H.39a20.5,20.5,0,0,1,0-8H10.84V2.32a20.1,20.1,0,0,1,8-2.27V16.27H40.11A20.82,20.82,0,0,1,40.5,20.25Z"/></g></g></svg>
